X:375
%%etbk:tnset id:106,pos:1,rep:3x,ant:
%%etbk:wsite http://www.thesession.org/tunes/display/826
%%etbk:pldat 2016-05-25T15:31,2014-12-18T18:17,2014-02-10T18:42,2014-02-07T15:37,2014-02-06T18:03,2013-12-11T16:33,2013-11-27T18:55,2013-10-08T16:37,2013-10-04T17:28,2013-08-28T16:51,2013-05-06T18:27
T: Lisheen, The
Z: Piano Box Version by Martin Fleischmann
H: Created 2013-02-19 /  Last Modified 2013-02-19
M: 12/8
L: 1/8
R: slide
K: Gmaj
|: "G"!3!B!2!B!3!B !3!BAB !1!G2B !2!A{c}AG | !3!B2B {c}BAG "D"A2B cBA |
"G"!3!B!2!B!2!B !3!BAB !1!G !3!(3G!2!G!1!G !1!G!2!B!3!d | !5!g2!4!e !3!d!2!B!1!G "D"!2!A2B !4!c!3!BA :|
|: "G"!3!g{a}!3!g!3!g !1!d !3!(3d!2!d!1!d !2!ege !1!d!2!d!1!d | !3!g!2!g!3!g !4!aga !5!bgb "D"!4!a!2!f!1!d |
"G"!3!g{a}!3!g!3!g !1!d2d !2!ege !1!d!2!d!1!d | !3!gdg "D"!4!ada "G"!5!b!3!gf !3!g3 :|


